Numix-Light-GalliumOS/16/status/nm-vpn-lock.svg

<?xml version="1.0" encoding="UTF-8" standalone="no"?>
<svg
   xmlns:dc="http://purl.org/dc/elements/1.1/"
   xmlns:cc="http://creativecommons.org/ns#"
   xmlns:rdf="http://www.w3.org/1999/02/22-rdf-syntax-ns#"
   xmlns:svg="http://www.w3.org/2000/svg"
   xmlns="http://www.w3.org/2000/svg"
   xmlns:sodipodi="http://sodipodi.sourceforge.net/DTD/sodipodi-0.dtd"
   xmlns:inkscape="http://www.inkscape.org/namespaces/inkscape"
   width="16"
   height="16"
   viewBox="0 0 16 16"
   id="svg2"
   version="1.1"
   inkscape:version="0.91 r"
   sodipodi:docname="nm-vpn-lock.svg">
  <metadata
     id="metadata12">
    <rdf:RDF>
      <cc:Work
         rdf:about="">
        <dc:format>image/svg+xml</dc:format>
        <dc:type
           rdf:resource="http://purl.org/dc/dcmitype/StillImage" />
      </cc:Work>
    </rdf:RDF>
  </metadata>
  <defs
     id="defs10" />
  <sodipodi:namedview
     pagecolor="#ffffff"
     bordercolor="#666666"
     borderopacity="1"
     objecttolerance="10"
     gridtolerance="10"
     guidetolerance="10"
     inkscape:pageopacity="0"
     inkscape:pageshadow="2"
     inkscape:window-width="1280"
     inkscape:window-height="998"
     id="namedview8"
     showgrid="false"
     inkscape:zoom="14.75"
     inkscape:cx="8"
     inkscape:cy="8"
     inkscape:window-x="0"
     inkscape:window-y="0"
     inkscape:window-maximized="1"
     inkscape:current-layer="svg2" />
  <path
     style="fill:#353535;fill-opacity:1"
     d="M 13.816406 9.453125 C 13.011719 9.453125 12.363281 10.117188 12.363281 10.929688 L 12.363281 11.636719 C 11.960938 11.636719 11.636719 11.960938 11.636719 12.363281 L 11.636719 14.546875 C 11.636719 14.949219 11.960938 15.273438 12.363281 15.273438 L 15.273438 15.273438 C 15.675781 15.273438 16 14.949219 16 14.546875 L 16 12.363281 C 16 11.960938 15.675781 11.636719 15.273438 11.636719 L 15.273438 10.929688 C 15.273438 10.117188 14.625 9.453125 13.816406 9.453125 Z M 13.816406 10.183594 C 14.222656 10.183594 14.546875 10.503906 14.546875 10.910156 L 14.546875 11.636719 L 13.089844 11.636719 L 13.089844 10.910156 C 13.089844 10.503906 13.414062 10.183594 13.816406 10.183594 Z "
     id="path6" />
</svg>

<svg xmlns="http://www.w3.org/2000/svg" viewBox="0 0 16 16">
 <path d="m 13.816 9.453 c -0.805 0 -1.453 0.664 -1.453 1.477 l 0 0.707 c -0.402 0 -0.727 0.324 -0.727 0.727 l 0 2.184 c 0 0.402 0.324 0.727 0.727 0.727 l 2.91 0 c 0.402 0 0.727 -0.324 0.727 -0.727 l 0 -2.184 c 0 -0.402 -0.324 -0.727 -0.727 -0.727 l 0 -0.707 c 0 -0.813 -0.648 -1.477 -1.457 -1.477 m 0 0.73 c 0.406 0 0.73 0.32 0.73 0.727 l 0 0.727 l -1.457 0 l 0 -0.727 c 0 -0.406 0.324 -0.727 0.727 -0.727 Z" style="fill:#353535;fill-opacity:1"/>
</svg>
